X: 6
T: Dinny Delaney's
Z: tziguk
S: https://thesession.org/tunes/185#setting53282
R: slide
M: 12/8
L: 1/8
K: Dmix
|:"D"A2D ~D3 A2G EFG|A2D ~D3 G2G GED|
A2D ~D3 c2d e2d|dcA AGE G2G GED:|
|:dcA AGE c3 ABc|dcA AGE G2G GED|
dcA AGE c2d e2d|dcA AGE G2G GED!D.C.!:|
|:"D"A2D ~D3 "D"A2B "G"G2B|"D"A2B "G"G2A"C"E3GED|
"D"A2D ~D3 c2d e2d|dcA AGE "C/E"G2A GED:|
|:"D"dcA AGE "Am"c3 ABc|"D"dcA AGE "C"G2A GED|
"D"dcA AGE "Am"c2d e2d|"D"dcA AGE "C"G2A GED:|

%-------------------- TUNE SEPARATOR --------------------%

